assets/1. Faces/Palm down hand/Default/Color/palm_down_hand_color_default.svg

<svg width="100%" height="100%" viewBox="0 0 32 32" fill="none" xmlns="http://www.w3.org/2000/svg">
<path d="M14.9809 18.1222C13.793 17.9007 13.0064 16.7577 13.2279 15.5698L14.1751 10.4488L18.4805 11.2482L17.5302 16.3692C17.3119 17.5571 16.1689 18.3437 14.9809 18.1222Z" fill="url(#paint0_radial_20020_6737)"/>
<path d="M14.9809 18.1222C13.793 17.9007 13.0064 16.7577 13.2279 15.5698L14.1751 10.4488L18.4805 11.2482L17.5302 16.3692C17.3119 17.5571 16.1689 18.3437 14.9809 18.1222Z" fill="url(#paint1_linear_20020_6737)"/>
<path d="M14.9809 18.1222C13.793 17.9007 13.0064 16.7577 13.2279 15.5698L14.1751 10.4488L18.4805 11.2482L17.5302 16.3692C17.3119 17.5571 16.1689 18.3437 14.9809 18.1222Z" fill="url(#paint2_radial_20020_6737)"/>
<path d="M18.7695 20.1773C17.5655 20.0553 16.689 18.983 16.8078 17.779L17.3279 12.5938L21.6847 13.0305L21.1646 18.2156C21.0458 19.4196 19.9735 20.2993 18.7695 20.1773Z" fill="url(#paint3_radial_20020_6737)"/>
<path d="M18.7695 20.1773C17.5655 20.0553 16.689 18.983 16.8078 17.779L17.3279 12.5938L21.6847 13.0305L21.1646 18.2156C21.0458 19.4196 19.9735 20.2993 18.7695 20.1773Z" fill="url(#paint4_radial_20020_6737)"/>
<path d="M18.7695 20.1773C17.5655 20.0553 16.689 18.983 16.8078 17.779L17.3279 12.5938L21.6847 13.0305L21.1646 18.2156C21.0458 19.4196 19.9735 20.2993 18.7695 20.1773Z" fill="url(#paint5_radial_20020_6737)"/>
<path d="M18.7695 20.1773C17.5655 20.0553 16.689 18.983 16.8078 17.779L17.3279 12.5938L21.6847 13.0305L21.1646 18.2156C21.0458 19.4196 19.9735 20.2993 18.7695 20.1773Z" fill="url(#paint6_linear_20020_6737)"/>
<path d="M23.929 20.8896C22.7411 21.1111 21.5981 20.3245 21.3765 19.1365L20.25 13.125L24.7285 13.2129L25.682 18.3371C25.9004 19.525 25.117 20.668 23.929 20.8896Z" fill="url(#paint7_radial_20020_6737)"/>
<path d="M23.929 20.8896C22.7411 21.1111 21.5981 20.3245 21.3765 19.1365L20.25 13.125L24.7285 13.2129L25.682 18.3371C25.9004 19.525 25.117 20.668 23.929 20.8896Z" fill="url(#paint8_radial_20020_6737)"/>
<g filter="url(#filter0_iii_20020_6737)">
<path d="M12.6606 17.0244C12.6606 15.3228 13.5474 14.4493 15.0591 13.9454C16.0356 13.7344 19.5903 13.7969 19.5903 13.7969C20.7231 13.7969 21.3697 14.2448 22.0278 14.8516L25.7856 18.0625C26.77 18.9688 28.2697 19.1809 29.2778 18.1407C30.3309 17.0555 30.2153 15.4063 28.9341 14.2969L23.1685 9.30926C21.8681 8.14058 21.2466 7.49203 18.8594 7.49203L9.88721 7.49203C5.0584 7.46314 2.1095 10.4219 2.1095 14.2969C2.1095 16.6407 4.19223 19.104 5.79346 20.7657L7.51221 22.399C8.87352 23.6062 10.645 24.625 12.4888 24.625H14.3169C14.9077 24.625 15.3693 24.5664 16.106 25.0078C17.0114 25.5504 18.436 25.4278 19.1841 24.6797C19.8358 24.028 20.0345 23.0927 19.6878 22.2355C19.0866 20.7386 17.4263 20.1094 15.8091 19.7969L14.6841 19.6407C13.2388 19.5391 12.6606 17.9063 12.6606 17.0244Z" fill="url(#paint9_linear_20020_6737)"/>
</g>
<path d="M12.6606 17.0244C12.6606 15.3228 13.5474 14.4493 15.0591 13.9454C16.0356 13.7344 19.5903 13.7969 19.5903 13.7969C20.7231 13.7969 21.3697 14.2448 22.0278 14.8516L25.7856 18.0625C26.77 18.9688 28.2697 19.1809 29.2778 18.1407C30.3309 17.0555 30.2153 15.4063 28.9341 14.2969L23.1685 9.30926C21.8681 8.14058 21.2466 7.49203 18.8594 7.49203L9.88721 7.49203C5.0584 7.46314 2.1095 10.4219 2.1095 14.2969C2.1095 16.6407 4.19223 19.104 5.79346 20.7657L7.51221 22.399C8.87352 23.6062 10.645 24.625 12.4888 24.625H14.3169C14.9077 24.625 15.3693 24.5664 16.106 25.0078C17.0114 25.5504 18.436 25.4278 19.1841 24.6797C19.8358 24.028 20.0345 23.0927 19.6878 22.2355C19.0866 20.7386 17.4263 20.1094 15.8091 19.7969L14.6841 19.6407C13.2388 19.5391 12.6606 17.9063 12.6606 17.0244Z" fill="url(#paint10_radial_20020_6737)"/>
<g filter="url(#filter1_f_20020_6737)">
<path d="M21.4284 9.70212L28.1189 15.0403C28.4977 15.3426 28.5497 15.8989 28.2335 16.2661C27.9425 16.6041 27.4405 16.6614 27.0807 16.3977L20.9204 11.8829C20.5103 11.5823 20.0012 11.4492 19.4965 11.5107L14.5167 12.1168C12.5093 12.3612 11 14.0653 11 16.0875V16.8573C11 17.8112 11.3409 18.7337 11.9612 19.4583L12.1363 19.663C12.631 20.2409 13.3269 20.6094 14.083 20.6937L16.0015 20.9076C16.6485 20.9798 17.2545 21.2604 17.728 21.7073L18.5265 22.4607C18.8388 22.7554 18.8504 23.2484 18.5523 23.5575C18.3095 23.8094 17.9276 23.8663 17.6218 23.6962L17.0429 23.3743C16.597 23.1262 16.0951 22.9961 15.5848 22.9961H13.1883C12.1241 22.9961 11.1037 22.5719 10.353 21.8175L6.43269 17.8779C5.4632 16.9036 5.06183 15.4998 5.36976 14.1603L5.6466 12.956C6.15632 10.7387 8.09868 9.14511 10.3728 9.07836L18.8163 8.83056C19.7627 8.80278 20.6883 9.11161 21.4284 9.70212Z" fill="#FFDF56"/>
</g>
<defs>
<filter id="filter0_iii_20020_6737" x="2.1095" y="6.24182" width="29.1303" height="19.2507" filterUnits="userSpaceOnUse" color-interpolation-filters="sRGB">
<feFlood flood-opacity="0" result="BackgroundImageFix"/>
<feBlend mode="normal" in="SourceGraphic" in2="BackgroundImageFix" result="shape"/>
<feColorMatrix in="SourceAlpha" type="matrix" values="0 0 0 0 0 0 0 0 0 0 0 0 0 0 0 0 0 0 127 0" result="hardAlpha"/>
<feOffset dx="1.25" dy="-1.25"/>
<feGaussianBlur stdDeviation="0.75"/>
<feComposite in2="hardAlpha" operator="arithmetic" k2="-1" k3="1"/>
<feColorMatrix type="matrix" values="0 0 0 0 0.984314 0 0 0 0 0.623529 0 0 0 0 0.286275 0 0 0 1 0"/>
<feBlend mode="normal" in2="shape" result="effect1_innerShadow_20020_6737"/>
<feColorMatrix in="SourceAlpha" type="matrix" values="0 0 0 0 0 0 0 0 0 0 0 0 0 0 0 0 0 0 127 0" result="hardAlpha"/>
<feOffset dy="-0.4"/>
<feGaussianBlur stdDeviation="0.4"/>
<feComposite in2="hardAlpha" operator="arithmetic" k2="-1" k3="1"/>
<feColorMatrix type="matrix" values="0 0 0 0 0.945098 0 0 0 0 0.494118 0 0 0 0 0.670588 0 0 0 1 0"/>
<feBlend mode="normal" in2="effect1_innerShadow_20020_6737" result="effect2_innerShadow_20020_6737"/>
<feColorMatrix in="SourceAlpha" type="matrix" values="0 0 0 0 0 0 0 0 0 0 0 0 0 0 0 0 0 0 127 0" result="hardAlpha"/>
<feOffset dx="0.15" dy="0.15"/>
<feGaussianBlur stdDeviation="0.25"/>
<feComposite in2="hardAlpha" operator="arithmetic" k2="-1" k3="1"/>
<feColorMatrix type="matrix" values="0 0 0 0 0.807843 0 0 0 0 0.541176 0 0 0 0 0.356863 0 0 0 1 0"/>
<feBlend mode="normal" in2="effect2_innerShadow_20020_6737" result="effect3_innerShadow_20020_6737"/>
</filter>
<filter id="filter1_f_20020_6737" x="2.76801" y="6.32886" width="28.1726" height="19.9647" filterUnits="userSpaceOnUse" color-interpolation-filters="sRGB">
<feFlood flood-opacity="0" result="BackgroundImageFix"/>
<feBlend mode="normal" in="SourceGraphic" in2="BackgroundImageFix" result="shape"/>
<feGaussianBlur stdDeviation="1.25" result="effect1_foregroundBlur_20020_6737"/>
</filter>
<radialGradient id="paint0_radial_20020_6737" cx="0" cy="0" r="1" gradientUnits="userSpaceOnUse" gradientTransform="translate(15.2441 17.1279) rotate(-72.8178) scale(3.9643 3.11363)">
<stop stop-color="#DC774A"/>
<stop offset="1" stop-color="#C55A14"/>
</radialGradient>
<linearGradient id="paint1_linear_20020_6737" x1="17.1378" y1="17.8256" x2="16.1162" y2="17.7259" gradientUnits="userSpaceOnUse">
<stop stop-color="#BB5202"/>
<stop offset="1" stop-color="#BB5202" stop-opacity="0"/>
</linearGradient>
<radialGradient id="paint2_radial_20020_6737" cx="0" cy="0" r="1" gradientUnits="userSpaceOnUse" gradientTransform="translate(15.0781 13.9063) rotate(80.8808) scale(4.77916 4.0293)">
<stop offset="0.72718" stop-color="#DF76A8" stop-opacity="0"/>
<stop offset="0.909009" stop-color="#DF76A8"/>
</radialGradient>
<radialGradient id="paint3_radial_20020_6737" cx="0" cy="0" r="1" gradientUnits="userSpaceOnUse" gradientTransform="translate(18.8125 19.625) rotate(-82.5284) scale(7.69029 2.67036)">
<stop stop-color="#F7A251"/>
<stop offset="1" stop-color="#DC7A22"/>
</radialGradient>
<radialGradient id="paint4_radial_20020_6737" cx="0" cy="0" r="1" gradientUnits="userSpaceOnUse" gradientTransform="translate(19.75 13.5625) rotate(96.8313) scale(6.87836 5.87923)">
<stop offset="0.860174" stop-color="#E87BA6" stop-opacity="0"/>
<stop offset="0.965343" stop-color="#E87BA6"/>
</radialGradient>
<radialGradient id="paint5_radial_20020_6737" cx="0" cy="0" r="1" gradientUnits="userSpaceOnUse" gradientTransform="translate(18.3125 20.6875) rotate(-77.5741) scale(7.5519 7.42451)">
<stop offset="0.666872" stop-color="#D36718" stop-opacity="0"/>
<stop offset="1" stop-color="#D36718"/>
</radialGradient>
<linearGradient id="paint6_linear_20020_6737" x1="21.4485" y1="17.4768" x2="20.1279" y2="17.7259" gradientUnits="userSpaceOnUse">
<stop stop-color="#C46711"/>
<stop offset="1" stop-color="#C46711" stop-opacity="0"/>
</linearGradient>
<radialGradient id="paint7_radial_20020_6737" cx="0" cy="0" r="1" gradientUnits="userSpaceOnUse" gradientTransform="translate(24 20.7187) rotate(-104.097) scale(7.18512 1.56176)">
<stop offset="0.192233" stop-color="#F7A251"/>
<stop offset="1" stop-color="#DC7A22"/>
</radialGradient>
<radialGradient id="paint8_radial_20020_6737" cx="0" cy="0" r="1" gradientUnits="userSpaceOnUse" gradientTransform="translate(24.1875 13.7813) rotate(98.8826) scale(7.2324 4.46687)">
<stop offset="0.909154" stop-color="#E87BA6" stop-opacity="0"/>
<stop offset="0.996372" stop-color="#E87BA6"/>
</radialGradient>
<linearGradient id="paint9_linear_20020_6737" x1="9.48084" y1="22.7962" x2="26.7102" y2="10.7019" gradientUnits="userSpaceOnUse">
<stop stop-color="#FFB92C"/>
<stop offset="1" stop-color="#FFC22B"/>
</linearGradient>
<radialGradient id="paint10_radial_20020_6737" cx="0" cy="0" r="1" gradientUnits="userSpaceOnUse" gradientTransform="translate(2.8125 18.4375) rotate(48.5035) scale(8.67828 3.03162)">
<stop stop-color="#DC8567"/>
<stop offset="1" stop-color="#DC8567" stop-opacity="0"/>
</radialGradient>
</defs>
</svg>

<svg width="100%" height="100%" viewBox="0 0 32 32" xmlns="http://www.w3.org/2000/svg"><path fill="url(#a)" d="M14.98 18.122a2.19 2.19 0 0 1-1.752-2.552l.947-5.121 4.305.8-.95 5.12a2.186 2.186 0 0 1-2.55 1.753"/><path fill="url(#b)" d="M14.98 18.122a2.19 2.19 0 0 1-1.752-2.552l.947-5.121 4.305.8-.95 5.12a2.186 2.186 0 0 1-2.55 1.753"/><path fill="url(#c)" d="M14.98 18.122a2.19 2.19 0 0 1-1.752-2.552l.947-5.121 4.305.8-.95 5.12a2.186 2.186 0 0 1-2.55 1.753"/><path fill="url(#d)" d="M18.77 20.177a2.193 2.193 0 0 1-1.962-2.398l.52-5.185 4.357.437-.52 5.185a2.186 2.186 0 0 1-2.395 1.961"/><path fill="url(#e)" d="M18.77 20.177a2.193 2.193 0 0 1-1.962-2.398l.52-5.185 4.357.437-.52 5.185a2.186 2.186 0 0 1-2.395 1.961"/><path fill="url(#f)" d="M18.77 20.177a2.193 2.193 0 0 1-1.962-2.398l.52-5.185 4.357.437-.52 5.185a2.186 2.186 0 0 1-2.395 1.961"/><path fill="url(#g)" d="M18.77 20.177a2.193 2.193 0 0 1-1.962-2.398l.52-5.185 4.357.437-.52 5.185a2.186 2.186 0 0 1-2.395 1.961"/><path fill="url(#h)" d="M23.929 20.89a2.19 2.19 0 0 1-2.552-1.753l-1.127-6.012 4.479.088.953 5.124a2.193 2.193 0 0 1-1.753 2.553"/><path fill="url(#i)" d="M23.929 20.89a2.19 2.19 0 0 1-2.552-1.753l-1.127-6.012 4.479.088.953 5.124a2.193 2.193 0 0 1-1.753 2.553"/><g filter="url(#j)"><path fill="url(#k)" d="M12.66 17.024c0-1.701.887-2.575 2.4-3.079.976-.21 4.53-.148 4.53-.148 1.133 0 1.78.448 2.438 1.055l3.758 3.21c.984.907 2.484 1.119 3.492.079 1.053-1.085.937-2.735-.344-3.844L23.17 9.309c-1.3-1.168-1.922-1.817-4.31-1.817H9.887c-4.829-.029-7.777 2.93-7.777 6.805 0 2.344 2.082 4.807 3.683 6.469l1.72 1.633c1.36 1.207 3.132 2.226 4.976 2.226h1.828c.59 0 1.052-.059 1.789.383.905.542 2.33.42 3.078-.328.652-.652.85-1.587.504-2.445-.601-1.496-2.262-2.126-3.879-2.438l-1.125-.156c-1.445-.102-2.023-1.735-2.023-2.617"/></g><path fill="url(#l)" d="M12.66 17.024c0-1.701.887-2.575 2.4-3.079.976-.21 4.53-.148 4.53-.148 1.133 0 1.78.448 2.438 1.055l3.758 3.21c.984.907 2.484 1.119 3.492.079 1.053-1.085.937-2.735-.344-3.844L23.17 9.309c-1.3-1.168-1.922-1.817-4.31-1.817H9.887c-4.829-.029-7.777 2.93-7.777 6.805 0 2.344 2.082 4.807 3.683 6.469l1.72 1.633c1.36 1.207 3.132 2.226 4.976 2.226h1.828c.59 0 1.052-.059 1.789.383.905.542 2.33.42 3.078-.328.652-.652.85-1.587.504-2.445-.601-1.496-2.262-2.126-3.879-2.438l-1.125-.156c-1.445-.102-2.023-1.735-2.023-2.617"/><g filter="url(#m)"><path fill="#FFDF56" d="m21.428 9.702 6.69 5.338a.855.855 0 0 1-1.037 1.358l-6.16-4.515a2 2 0 0 0-1.424-.372l-4.98.606A4 4 0 0 0 11 16.087v.77a4 4 0 0 0 .961 2.601l.175.205a3 3 0 0 0 1.947 1.03l1.918.215a3 3 0 0 1 1.727.8l.798.753a.772.772 0 0 1-.904 1.235l-.58-.322a3 3 0 0 0-1.457-.378h-2.397a4 4 0 0 1-2.835-1.178l-3.92-3.94A4 4 0 0 1 5.37 14.16l.277-1.204a5 5 0 0 1 4.726-3.878l8.443-.247a4 4 0 0 1 2.612.871"/></g><defs><radialGradient id="a" cx="0" cy="0" r="1" gradientTransform="matrix(1.1711 -3.78737 2.97467 .9198 15.244 17.128)" gradientUnits="userSpaceOnUse"><stop stop-color="#DC774A"/><stop offset="1" stop-color="#C55A14"/></radialGradient><radialGradient id="c" cx="0" cy="0" r="1" gradientTransform="matrix(.75744 4.71876 -3.97837 .6386 15.078 13.906)" gradientUnits="userSpaceOnUse"><stop offset=".727" stop-color="#DF76A8" stop-opacity="0"/><stop offset=".909" stop-color="#DF76A8"/></radialGradient><radialGradient id="d" cx="0" cy="0" r="1" gradientTransform="matrix(1 -7.625 2.64769 .34724 18.813 19.625)" gradientUnits="userSpaceOnUse"><stop stop-color="#F7A251"/><stop offset="1" stop-color="#DC7A22"/></radialGradient><radialGradient id="e" cx="0" cy="0" r="1" gradientTransform="rotate(96.831 3.858 15.544)scale(6.87836 5.87923)" gradientUnits="userSpaceOnUse"><stop offset=".86" stop-color="#E87BA6" stop-opacity="0"/><stop offset=".965" stop-color="#E87BA6"/></radialGradient><radialGradient id="f" cx="0" cy="0" r="1" gradientTransform="matrix(1.625 -7.375 7.2506 1.59758 18.313 20.688)" gradientUnits="userSpaceOnUse"><stop offset=".667" stop-color="#D36718" stop-opacity="0"/><stop offset="1" stop-color="#D36718"/></radialGradient><radialGradient id="h" cx="0" cy="0" r="1" gradientTransform="rotate(-104.097 20.08 1)scale(7.18512 1.56176)" gradientUnits="userSpaceOnUse"><stop offset=".192" stop-color="#F7A251"/><stop offset="1" stop-color="#DC7A22"/></radialGradient><radialGradient id="i" cx="0" cy="0" r="1" gradientTransform="matrix(-1.11676 7.14566 -4.4133 -.68973 24.188 13.781)" gradientUnits="userSpaceOnUse"><stop offset=".909" stop-color="#E87BA6" stop-opacity="0"/><stop offset=".996" stop-color="#E87BA6"/></radialGradient><radialGradient id="l" cx="0" cy="0" r="1" gradientTransform="matrix(5.75 6.5 -2.27067 2.00867 2.813 18.438)" gradientUnits="userSpaceOnUse"><stop stop-color="#DC8567"/><stop offset="1" stop-color="#DC8567" stop-opacity="0"/></radialGradient><linearGradient id="b" x1="17.138" x2="16.116" y1="17.826" y2="17.726" gradientUnits="userSpaceOnUse"><stop stop-color="#BB5202"/><stop offset="1" stop-color="#BB5202" stop-opacity="0"/></linearGradient><linearGradient id="g" x1="21.448" x2="20.128" y1="17.477" y2="17.726" gradientUnits="userSpaceOnUse"><stop stop-color="#C46711"/><stop offset="1" stop-color="#C46711" stop-opacity="0"/></linearGradient><linearGradient id="k" x1="9.481" x2="26.71" y1="22.796" y2="10.702" gradientUnits="userSpaceOnUse"><stop stop-color="#FFB92C"/><stop offset="1" stop-color="#FFC22B"/></linearGradient><filter id="j" width="29.13" height="19.251" x="2.11" y="6.242" color-interpolation-filters="sRGB" filterUnits="userSpaceOnUse"><feFlood flood-opacity="0" result="BackgroundImageFix"/><feBlend in="SourceGraphic" in2="BackgroundImageFix" result="shape"/><feColorMatrix in="SourceAlpha" result="hardAlpha" values="0 0 0 0 0 0 0 0 0 0 0 0 0 0 0 0 0 0 127 0"/><feOffset dx="1.25" dy="-1.25"/><feGaussianBlur stdDeviation=".75"/><feComposite in2="hardAlpha" k2="-1" k3="1" operator="arithmetic"/><feColorMatrix values="0 0 0 0 0.984314 0 0 0 0 0.623529 0 0 0 0 0.286275 0 0 0 1 0"/><feBlend in2="shape" result="effect1_innerShadow_20020_6737"/><feColorMatrix in="SourceAlpha" result="hardAlpha" values="0 0 0 0 0 0 0 0 0 0 0 0 0 0 0 0 0 0 127 0"/><feOffset dy="-.4"/><feGaussianBlur stdDeviation=".4"/><feComposite in2="hardAlpha" k2="-1" k3="1" operator="arithmetic"/><feColorMatrix values="0 0 0 0 0.945098 0 0 0 0 0.494118 0 0 0 0 0.670588 0 0 0 1 0"/><feBlend in2="effect1_innerShadow_20020_6737" result="effect2_innerShadow_20020_6737"/><feColorMatrix in="SourceAlpha" result="hardAlpha" values="0 0 0 0 0 0 0 0 0 0 0 0 0 0 0 0 0 0 127 0"/><feOffset dx=".15" dy=".15"/><feGaussianBlur stdDeviation=".25"/><feComposite in2="hardAlpha" k2="-1" k3="1" operator="arithmetic"/><feColorMatrix values="0 0 0 0 0.807843 0 0 0 0 0.541176 0 0 0 0 0.356863 0 0 0 1 0"/><feBlend in2="effect2_innerShadow_20020_6737" result="effect3_innerShadow_20020_6737"/></filter><filter id="m" width="28.173" height="19.965" x="2.768" y="6.329" color-interpolation-filters="sRGB" filterUnits="userSpaceOnUse"><feFlood flood-opacity="0" result="BackgroundImageFix"/><feBlend in="SourceGraphic" in2="BackgroundImageFix" result="shape"/><feGaussianBlur result="effect1_foregroundBlur_20020_6737" stdDeviation="1.25"/></filter></defs></svg>
